X:37
T:Lement a nap...
O: (Somogy)
Q:"Tempo rubato"
M:4/4
L:1/4
K:D
E/F/G/F/ E/D/F/E/ | B,2 B, z | 
B/c/d/c/ B/A/c/B/ | F2 F z | 
B/c/d/c/ B/A/c/B/ | F2 D z | 
A/B/F/G/ A/G/F/E/ | B,2 B, z | 

